dist/img/svg/ic_search.svg

<svg width="17" height="17" viewBox="0 0 17 17"   xmlns="http://www.w3.org/2000/svg">
<path d="M16.8055 15.8661L12.0092 11.0699C14.1944 8.41115 14.0458 4.46433 11.5626 1.9812C8.92099 -0.660401 4.62281 -0.660401 1.9812 1.9812C-0.660401 4.62281 -0.660401 8.92099 1.9812 11.5626C4.46367 14.0451 8.40999 14.1954 11.0699 12.0092L15.8661 16.8055C16.1255 17.0648 16.546 17.0648 16.8054 16.8055C17.0648 16.546 17.0648 16.1255 16.8055 15.8661ZM10.6233 10.6233C8.49964 12.7469 5.04419 12.7469 2.92052 10.6233C0.79685 8.49961 0.79685 5.04416 2.92052 2.92049C5.04413 0.796916 8.49957 0.79675 10.6233 2.92049C12.747 5.04416 12.747 8.49961 10.6233 10.6233Z"  />
</svg>

<svg width="17" height="17" viewBox="0 0 17 17" xmlns="http://www.w3.org/2000/svg"><path d="M16.805 15.866L12.01 11.07c2.185-2.659 2.037-6.606-.446-9.089a6.783 6.783 0 00-9.582 0 6.783 6.783 0 000 9.582c2.483 2.482 6.429 2.632 9.089.446l4.796 4.796a.664.664 0 00.94-.939zm-6.182-5.243a5.453 5.453 0 01-7.702 0 5.453 5.453 0 010-7.703 5.453 5.453 0 017.702 0 5.453 5.453 0 010 7.703z"/></svg>
